X:156
T:Old Triangle, The
T:Auld Triangle, The
R:song
C:Dickie Shannon (1916-1975)
D:The Dubliners
D:The High Kings
Z:id:hn-song-156
M:3/4
L:1/8
Q:1/4=120
K:G
(EF) | G4 F2 | E2 D4- | D4 d2 | d4 B2 | (dB) d4- | d4
Bd | e4 (dc) | B G3 AB | A2 G4 | E6- | E4
DE | G4 F2 | E2 D4- | D4 d2 | d4 B2 | (dB) d4- | d4
Bd | e4 (dc) | B4 AG | A A4 G | G6- | G4 ||
W:A hungry feeling came o'er me stealing
W:And the mice were squealing in my prison cell
W:And the old triangle went jingle jangle
W:All along the banks of the Royal Canal.
W:
W:To begin the morning the screw was bawling
W:"Get up you bowsie, and clean up your cell"
W:And the old triangle went jingle jangle
W:All along the banks of the Royal Canal
W:
W:The lags were sleeping, humpy Gussy was peeping
W:As I lay there weeping for my girl Sal
W:And the old triangle went jingle jangle
W:All along the banks of the Royal Canal
W:
W:Up in the female prison there are seventy-five women
W:And among them I wish I did dwell
W:Then the old triangle could go jingle jangle
W:All along the banks of the Royal Canal

